src/icons/hds/some/facebook.svg

<svg xmlns="http://www.w3.org/2000/svg" width="24" height="24" viewBox="0 0 24 24">
  <g fill="none" fill-rule="evenodd">
    <rect width="24" height="24"/>
    <path fill="currentColor" d="M19,3 C20.1045695,3 21,3.8954305 21,5 L21,19 C21,20.1045695 20.1045695,21 19,21 L15.644,21 L15.6441964,13.8803571 L18.0790179,13.8803571 L18.4285714,11.1642857 L15.6441964,11.1642857 L15.6441964,9.42857143 C15.6441964,8.64107143 15.8611607,8.10669643 16.9901786,8.10669643 L18.4285714,8.10669643 L18.4285714,5.67991071 L18.0781393,5.64434741 L17.7376995,5.61862265 C17.357341,5.59333717 16.865051,5.57142857 16.33125,5.57142857 C14.2580357,5.57142857 12.8357143,6.83705357 12.8357143,9.16339286 L12.8357143,11.1683036 L10.3928571,11.1683036 L10.3928571,13.884375 L12.8397321,13.884375 L12.839,21 L5,21 C3.8954305,21 3,20.1045695 3,19 L3,5 C3,3.8954305 3.8954305,3 5,3 L19,3 Z"/>
  </g>
</svg>

<svg viewBox="0 0 24 24" role="img" xmlns="http://www.w3.org/2000/svg"><g fill="none" fill-rule="evenodd"><path d="M0 0h24v24H0z"/><path d="M19 3a2 2 0 012 2v14a2 2 0 01-2 2h-3.356v-7.12h2.435l.35-2.716h-2.785V9.43c0-.788.217-1.322 1.346-1.322h1.439V5.68l-.35-.036-.341-.025c-.38-.026-.873-.048-1.407-.048-2.073 0-3.495 1.266-3.495 3.592v2.005h-2.443v2.716h2.447L12.839 21H5a2 2 0 01-2-2V5a2 2 0 012-2h14z" fill="currentColor"/></g></svg>
